X:88a
T: Sikotai gulyajárás...
M: 2/4
L: 1/4
K: F
g2 | g/a/g/c/ | 
a/g/f/g/ | f/d/d/G/ | 
f/g/d/c/ | c/d/B/F/ | 
B B/G/ | F/G/G/G/ | 

